rospo-icon-theme-classic-common/16x16/apps/preferences-ubuntu-panel.svg

<svg height="16" viewBox="0 0 16 16" width="16" xmlns="http://www.w3.org/2000/svg"><path d="m .80078125.99804688v.00195312c-.4432 0-.80078125.3464438-.80078125.7773438v11.2226562 1.222656c0 .43092.35758125.777344.80078125.777344h14.39843775c.443 0 .800781-.346344.800781-.777344v-1.222656-11.2246094c0-.4309-.357781-.77734373-.800781-.77734372z" fill="#8b346f"/><path d="m .80078125.99804688v.00195312c-.4432 0-.80078125.3464438-.80078125.7773438v11.2226562 1.222656c0 .43092.35758125.777344.80078125.777344h2.19921875v-14.00195312z" opacity=".2"/><g fill="#fff"><rect height="1" rx=".125" width="1" x="1" y="2"/><rect height="1" rx=".125" width="1" x="1" y="4"/><rect height="1" rx=".125" width="1" x="1" y="6"/><rect height="1" rx=".125" width="1" x="1" y="8"/></g></svg>

<svg xmlns="http://www.w3.org/2000/svg" width="16" height="16" version="1.1" viewBox="0 0 16 16">
 <path style="fill:#8b346f" d="M 0.80078125 0.99804688 L 0.80078125 1 C 0.35758125 1 0 1.3464438 0 1.7773438 L 0 13 L 0 14.222656 C 1.4802974e-16 14.653576 0.35758125 15 0.80078125 15 L 15.199219 15 C 15.642219 15 16 14.653656 16 14.222656 L 16 13 L 16 1.7753906 C 16 1.3444906 15.642219 0.99804687 15.199219 0.99804688 L 0.80078125 0.99804688 z"/>
 <path style="opacity:0.2" d="M 0.80078125 0.99804688 L 0.80078125 1 C 0.35758125 1 0 1.3464438 0 1.7773438 L 0 13 L 0 14.222656 C 1.4802974e-16 14.653576 0.35758125 15 0.80078125 15 L 3 15 L 3 0.99804688 L 0.80078125 0.99804688 z"/>
 <rect fill="#fff" width="1" height="1" x="1" y="2" rx=".125" ry=".125"/>
 <rect fill="#fff" width="1" height="1" x="1" y="4" rx=".125" ry=".125"/>
 <rect fill="#fff" width="1" height="1" x="1" y="6" rx=".125" ry=".125"/>
 <rect fill="#fff" width="1" height="1" x="1" y="8" rx=".125" ry=".125"/>
</svg>
